**kern	**kern	**dynam
*part1	*part1	*part1
*staff2	*staff1	*
*I"Piano	*	*
*clefF4	*clefG2	*
*k[b-e-a-d-]	*k[b-e-a-d-]	*
=1	=1	=1
*	*^	*
4BB-	2en	4r	<
4F 4A-	.	4dn	.
4F 4A-	4f	4d	.
*	*v	*v	*
=	=	=
4EE-: 4BB-: 4G:	4d-X 4e- 4b-	[
!	!LO:TX:a:i:t=rit.	!
4r	(4f 4a- 4dd-	.
4r	4d- 4f 4b-	.
=	=	=
*	*^	*
2.r	4B- 4g	2.d-	>
.	4A- 4f	.	.
.	4G) 4e-	.	.
=	=	=	=
!	!LO:TX:a:i:t=a tempo	!	!
4AA-	4cc	4r	]
4E- 4A-	4.b-	4c 4e-	.
4E- 4A-	.	4c 4e-	.
.	8a-	.	.
=	=	=	=
4EE-	2g	4r	.
4E- 4A-	.	4c 4e-	.
4E- 4A-	4a-	4c 4e-	.
=	=	=	=
4BB-	[2.ee-	4r	<
4E- 4G	.	4d- 4e-	.
4E- 4G	.	4d- 4e-	[
=	=	=	=
4EE-	2ee-]	4r	>
4E- 4G	.	4d- 4e-	.
4E- 4G	4r	4d- 4e-	.
*	*v	*v	*
=	=	=
*-	*-	*-
!!!system-decoration: {(s1,s2)}
